X:1
T:Perot viendras tu
T:Perot viendras tu
T:Adriaan Willaert
T:Source : Trium vocum cantiones---Nürnberg---J.Petreius---1541. Editor : André Vierendeels (07/08/15).
T:Notes : Original clefs : C4, C4, F4 Editorial accidentals above the staff Original note values have been halved
C:Adriaan Willaert
%%score [ 1 2 3 ]
L:1/8
Q:1/4=70
M:2/2
K:F
V:1 treble-8 nm="Tenor 1" snm="T 1"
V:2 treble-8 nm="Tenor 2" snm="T 2"
V:3 bass nm="Bassus" snm="B"
V:1
 z8 | A4 F4 | z4 z2 A2- | A2 F4 A2 | c2 B2 A2 G2 | F2 A4 F2 | G2 F2 F2 E2 | F8 | z2 F4 E2 | %9
w: |"Pe- rot,|Pe-|* rot, vien-|dras tu aux nop-|ces, Pe- rot,|ny vien- dras tu|pas?"|Ro- bin|
 F2 G2 A2 A2 | B2 c2 d2 B2 | c3 B AG F2- | F2 E2 F4 | z4 z2 F2- | F2 E2 F2 D2 | C2 G2 A2 c2- | %16
w: print sa ser- pe,|au _ _ bois|sen _ _ _ al-|* * la,|quant|_ il fut au|bois, son vit luy|
 c2 B2 c2 A2 | F4 z2 A2 | c2 B2 A2 G2 | F2 A4 F2 | G2 F2 F2 E2 | F4 z4 | F3 F F2 G2 | %23
w: _ _ _ ge-|la, "Pe-|rot, vien- dras tu|aux nop- ces,|ny vien- dras tu|pas?"|Quant il fut au|
 A2 F2 G2 A2- | A2 G2 A2 FG | AB c4 B2 | c4 z2 A2- | A2 G2 A2 B2 | c4 A3 A | A2 G2 F2 c2 | %30
w: bois, son vit luy|_ _ _ _ _|* * * ge-|la, quant|_ il fut au|bois, son vit|luy ge- la, son|
 d2 f4 e2 | f4 z2 A2- | A2 F2 A2 c2 | B2 A2 G2 G2 | A4 F4 | G2 F2 F2 E2 | F4 z2 D2- | DD D2 E2 F2 | %38
w: vit luy ge-|la, "Pe-|* rot, vien- dras|tu aux nop- ces,|Pe- rot,|ny vien- dras tu|pas?" Il|_ print sa cog- ni-|
 F2 D3 D D2 | E2 F3 EDC | D4 C2 F2- | FE D2 C4 | A3 A A2 B2 | c4 c3 d | c2 B2 A2 G2 | F2 f4 e2 | %46
w: ée, coup- per le|cui- da, cou- * *|per le- cui-|* * * da,|sa fem- me *|dit: "Ne le|coup- pes pas, ne|le coup- pes|
 f4 z4 | A4 F4 | z4 z2 A2- | A2 F4 A2 | c2 B2 A2 G2 | F2 A4 F2 | G2 F2 F2 E2 | F2 c2 d2 B2- | %54
w: pas!"|"Pe- rot,|Pe-|* rot, vien-|dras tu aux nop-|ces, Pe- rot,|ny- vien- dras tu|pas? Pe- rot, ny|
 B2 A2 G2 G2 | F8 |] %56
w: _ vien- dras tu|pas?"|
V:2
 z4 A4 | F4 A2 c2 | B2 A2 G2 F2 | A4 F4 | G2 F2 F2 E2 | F4 z4 | z8 | z2 c4 A2 | B3 c d2 G2 | %9
w: "Pe-|rot, vien- dras|tu aux nop- ces,|Pe- rot,|ny vien- dras tu|pas?"||Ro- bin|print sa ser- pe,|
 z4 z2 F2- | F2 E2 F2 G2 | A2 A2 F2 F2 | G2 G2 A4 | A3 A A2 B2 | c4 A3 B | A2 G2 F2 A2- | %16
w: Ro-|* bin print sa|ser- pe, au bois|sen al- la,|quant il fut au|bois, son vit|luy ge- la, "Pe-|
 A2 F2 A2 c2 | B2 A2 G2 F2 | z2 F4 D2- | DEFG A3 B | c2 A2 G4 | F4 A3 B | c2 d2 c2 B2 | c2 d4 c2 | %24
w: * rot, vien- dras|tu aux nop- ces,|Pe- rot|_ _ _ _ _ ny|vien- dras tu|pas?" Quant il|fut au bois, son|vit luy ge-|
 B3 A FGAB | c4 d4 | c8- | c4 z4 | z8 | z4 A4 | F4 A2 c2 | B2 A2 G2 F2 | A4 F4 | G2 F2 F2 E2 | %34
w: la, son vit _ _ _|luy ge-|la,|_||Pe-|rot, vien- dras|tu aux nop- ces,|"Pe- rot,|ny vien- dras _|
 F2 c4 BA | BAGF G4 | z4 F3 F | F2 G2 A2 A2 | F3 F F2 G2 | A4 A3 A | A2 B2 c4 | A3 A A2 G2 | F8 | %43
w: tu pas?" _ _|_ _ _ _ _|Il print|sa cog- * niée,|coup- per le cui-|da, sa fem-|me luy dit:|"Ne le coup- pes|pas!|
 z4 A3 A | A2 B2 c4 | A3 B A2 G2 | F4 A4 | F4 A2 c2 | B2 A2 G2 F2 | A4 F4 | G2 F2 F2 E2 | F4 z4 | %52
w: Ne le|coup- pes pas!|Ne le coup- pes|pas!" "Pe-|rot, vien- dras|tu aux nop- ces,|Pe- rot,|ny vien- dras tu|pas,|
 z8 | A4 F4 | G2 F2 F2 E2 | F8 |] %56
w: |Pe- rot,|ny vien- dras tu|pas?"|
V:3
 A,4 F,4 | z8 | D,4 B,,2 D,2 | C,2 D,4 F,2 | E,2 D,2 C,4 | D,2 F,3 E,D,C, | B,,2 A,,2 G,,2 G,,2 | %7
w: "Pe- rot,||Pe- rot, vien-|dras tu aux|nop- ces, Pe-|rot, ny _ _ _|_ vien- dras tu|
 F,,4 z4 | B,,3 A,, B,,2 C,2 | D,2 B,,2 F,3 E, | D,2 C,2 B,,2 A,,G,, | F,,2 F,4 E,D, | %12
w: pas?"|Ro- bin print sa|ser- pe, au bois|sen _ _ _ _|_ al- * *|
 C,4 z2 D,2- | D,2 C,2 D,2 B,,2 | A,,2 C,2 D,2 F,2- | F,2 E,2 F,4 | D,4 A,,4 | D,2 F,2 E,2 D,2 | %18
w: la, quant|_ il fut au|bois, son vit luy|_ ge- la,|"Pe- rot,|vien- dras tu aux|
 C,2 D,2 z2 B,,2- | B,,2 F,,2 F,2 D,2 | E,2 F,2 C,3 B,, | A,,G,, B,,2 F,,4 | z8 | z8 | z4 z2 F,2- | %25
w: nop- ces, Pe-|* rot ny vien-|dras tu pas?" _|_ _ _ _|||Quant|
 F,2 E,2 F,2 G,2 | A,4 F,3 F, | F,2 E,2 D,3 C,/B,,/ | A,,2 C,2 D,2 F,2- | F,2 E,2 F,4 | D,6 C,2 | %31
w: _ il fut au|bois son vit|luy ge- la, _ _|_ son vit luy|_ ge- la,|"Pe- rot,|
 D,2 F,2 E,2 D,2 | C,2 D,2 z4 | z8 | z8 | B,,3 B,, B,,2 C,2 | D,4 D,2 B,,2- | %37
w: vien- dras tu aux|nop- ces?"|||Il print- sa co-|gni- ée, coup-|
 B,,B,, B,,2 C,2 D,2- | D,C,B,,A,, B,,4 | A,,4 z2 F,2- | F,F, F,2 G,2 A,2 | D,2 F,2 F,2 E,2 | %42
w: * per le cui- *||da, sa|_ fem- me luy dit:|"Ne le coup- pes|
 F,2 D,3 D, D,2 | E,2 F,4 F,2- | F,2 G,2 F,2 E,2 | F,2 D,2 C,4 | A,4 F,4 | z8 | D,4 B,,2 D,2 | %49
w: pas!" sa fem- me|luy dit: "Ne|_ le coup- pes|pas!" "Pe- rot,|Pe- rot,||Pe- rot, vien-|
 C,2 D,4 F,2 | E,2 D,2 C,4 | D,2 F,3 E,D,C, | B,,2 A,,2 G,,2 G,,2 | F,,4 B,,3 A,, | %54
w: dras tu aux|nop- ces, Pe-|rot ny _ _ _|_ vien- dras tu|pas, ny _|
 G,,2 A,,2 B,,2 C,2 | F,,8 |] %56
w: _ vien- dras tu|pas?"|

